kartsymboler/idrott_anlaggning.svg

<?xml version="1.0" encoding="UTF-8" standalone="no"?>
<!-- Created with Inkscape (http://www.inkscape.org/) -->

<svg
   version="1.1"
   id="svg2"
   xml:space="preserve"
   width="22.693333"
   height="12.106667"
   viewBox="0 0 22.693333 12.106667"
   sodipodi:docname="idrott_anlaggning.svg"
   inkscape:version="1.2.2 (b0a8486541, 2022-12-01)"
   xmlns:inkscape="http://www.inkscape.org/namespaces/inkscape"
   xmlns:sodipodi="http://sodipodi.sourceforge.net/DTD/sodipodi-0.dtd"
   xmlns="http://www.w3.org/2000/svg"
   xmlns:svg="http://www.w3.org/2000/svg"><sodipodi:namedview
     id="namedview10"
     pagecolor="#ffffff"
     bordercolor="#666666"
     borderopacity="1.0"
     inkscape:pageshadow="2"
     inkscape:pageopacity="0.0"
     inkscape:pagecheckerboard="0"
     showgrid="false"
     inkscape:zoom="52.129849"
     inkscape:cx="8.4020961"
     inkscape:cy="6.0713776"
     inkscape:window-width="2560"
     inkscape:window-height="1364"
     inkscape:window-x="1920"
     inkscape:window-y="0"
     inkscape:window-maximized="1"
     inkscape:current-layer="g10"
     inkscape:showpageshadow="2"
     inkscape:deskcolor="#d1d1d1" /><defs
     id="defs6" /><g
     id="g8"
     transform="matrix(1.3333333,0,0,-1.3333333,0,12.106667)"><g
       id="g10"
       transform="scale(0.1)"><path
         id="path12"
         style="fill:#2f2f2f;fill-opacity:1.0;fill-rule:nonzero;stroke:none"
         d="M 47.416993 90.814653 L 43.286134 90.65352 L 39.140626 89.994341 L 35.083009 89.115434 L 31.142579 87.928911 L 27.348633 86.302934 L 23.671876 84.530473 L 20.141602 82.377153 L 16.918946 79.945512 L 13.857422 77.235551 L 11.074219 74.349809 L 8.5546877 71.200395 L 6.2841798 67.860551 L 4.4238282 64.374223 L 2.7832032 60.770707 L 1.6113282 56.976762 L 0.70312502 53.197465 L 0.16113282 49.315629 L 0 45.389847 L 0 44.642777 L 0.26367188 40.702347 L 0.82031252 36.820511 L 1.8164063 33.041214 L 3.0615235 29.349808 L 4.7607423 25.746292 L 6.7529299 22.245316 L 8.9941408 18.978714 L 11.513672 15.843948 L 14.399414 13.060745 L 17.460938 10.365432 L 20.771485 8.0216824 L 24.28711 5.9562526 L 28.095704 4.1544948 L 31.860352 2.7189479 L 35.903321 1.517776 L 39.975587 0.6388697 L 44.106446 0.19941657 L 48.251954 -0.0056615626 L 121.94825 -0.0056615626 L 122.76856 -0.0056615626 L 126.91407 0.19941657 L 131.05957 0.81465096 L 135.10254 1.7375025 L 139.04297 2.8947291 L 142.83692 4.5060573 L 146.52832 6.3224636 L 150.04395 8.475784 L 153.26661 10.922073 L 156.32813 13.514847 L 159.09668 16.459183 L 161.61621 19.535355 L 163.90137 22.875198 L 165.76172 26.390823 L 167.3877 29.994339 L 168.57422 33.773636 L 169.45313 37.523636 L 170.02442 41.493363 L 170.2002 45.389847 L 170.2002 46.092972 L 169.90723 50.062699 L 169.37989 53.915238 L 168.38379 57.709184 L 167.12403 61.473832 L 165.42481 65.077348 L 163.46192 68.505082 L 161.17676 71.830278 L 158.65723 74.891801 L 155.78614 77.777544 L 152.73926 80.384965 L 149.41407 82.801958 L 145.89844 84.867387 L 142.08985 86.683794 L 138.3252 88.133989 L 134.28223 89.291216 L 130.20996 90.199419 L 126.09375 90.65352 L 121.94825 90.814653 L 47.416993 90.814653 z M 47.622072 85.145708 L 121.77246 85.145708 L 125.55176 84.984575 L 129.68262 84.530473 L 132.83203 83.783403 L 136.62598 82.714067 L 139.79004 81.542192 L 143.18848 79.945512 L 146.35254 78.041215 L 149.22364 75.975786 L 152.00684 73.529497 L 154.35059 71.200395 L 156.69434 68.314653 L 158.4961 65.707231 L 160.3711 62.396684 L 161.90918 59.24727 L 162.90528 56.273637 L 163.90137 52.58223 L 164.23829 49.784379 L 164.51661 45.829301 L 164.51661 45.55098 L 164.35547 41.786332 L 163.98926 38.79805 L 163.08106 35.194535 L 162.08496 32.074417 L 160.64942 28.910355 L 158.9502 25.746292 L 157.14844 23.05098 L 154.80469 20.179886 L 152.3584 17.660355 L 149.66309 15.316604 L 146.77735 13.148636 L 143.83301 11.361526 L 140.56641 9.7209012 L 136.97754 8.1828152 L 133.5791 7.1134792 L 129.96094 6.4103542 L 126.54785 5.8830105 L 122.56348 5.6632839 L 48.413087 5.6632839 L 44.648439 5.8830105 L 40.502931 6.3224636 L 37.353517 7.0255886 L 33.559571 8.109573 L 30.424805 9.281448 L 26.982423 10.922073 L 23.745118 12.870315 L 20.976563 14.759964 L 18.164063 17.279495 L 15.644532 19.725784 L 13.579102 22.347855 L 11.616211 25.116409 L 9.8144534 28.456253 L 8.2763674 31.605667 L 7.2949221 34.476761 L 6.2841798 38.182816 L 5.9472658 40.966019 L 5.6689455 44.935746 L 5.6689455 45.184769 L 5.8300783 49.066605 L 6.2109377 51.923051 L 7.1044924 55.526566 L 8.1152346 58.705277 L 9.5507815 61.854692 L 11.25 65.004106 L 13.242188 67.96309 L 15.219727 70.467973 L 17.739258 73.075395 L 20.522461 75.507036 L 23.408204 77.675004 L 26.35254 79.476762 L 29.619141 81.102739 L 33.222657 82.626176 L 36.621095 83.710161 L 40.209962 84.442583 L 43.652345 84.984575 L 47.622072 85.145708 z M 48.046876 73.807817 L 44.560548 73.646684 L 42.114259 73.265825 L 39.594728 72.738481 L 37.163087 71.991411 L 34.643556 70.922075 L 31.772462 69.501176 L 29.501954 68.138871 L 27.890626 66.864457 L 25.473633 64.711137 L 23.833008 63.099809 L 22.309571 61.195512 L 21.152344 59.33516 L 19.526368 56.43477 L 18.706055 54.64766 L 18.00293 52.465043 L 17.373047 49.974808 L 17.182618 48.158402 L 17.006836 45.27266 L 17.285157 41.786332 L 17.460938 40.424027 L 18.28125 37.435746 L 18.706055 36.117386 L 19.892579 33.773636 L 21.313477 31.078324 L 22.675782 29.159378 L 24.111329 27.26973 L 25.810548 25.643753 L 27.978516 23.666214 L 29.707032 22.494339 L 32.314454 20.970901 L 35.009767 19.652542 L 37.075196 18.905472 L 40.209962 18.011917 L 42.377931 17.455276 L 45.175782 17.206253 L 48.867189 17.030472 L 122.10938 17.030472 L 125.625 17.206253 L 128.07129 17.572464 L 130.59082 18.099808 L 133.02246 18.83223 L 135.542 19.901565 L 138.41309 21.351761 L 140.6836 22.67012 L 142.30957 23.944534 L 144.60938 25.936722 L 146.23536 27.635941 L 148.05176 29.906449 L 149.04786 31.429886 L 150.65918 34.30098 L 151.4795 36.117386 L 152.18262 38.270707 L 152.8125 40.790238 L 153.00293 42.65059 L 153.17871 45.46309 L 152.88575 48.978715 L 152.73926 50.311723 L 151.91895 53.373246 L 151.4795 54.823441 L 150.21973 57.342973 L 148.84278 59.672074 L 147.7002 61.40059 L 145.78125 63.715043 L 144.44825 65.077348 L 142.08985 67.069535 L 140.14161 68.505082 L 137.8711 69.83809 L 135.17578 71.200395 L 133.11035 71.90352 L 129.96094 72.811723 L 127.80762 73.353715 L 124.99512 73.632036 L 121.30371 73.807817 L 48.046876 73.807817 z M 48.251954 68.138871 L 121.15723 68.138871 L 124.55567 67.96309 L 126.91407 67.68477 L 128.51075 67.318559 L 131.58692 66.439653 L 132.90528 65.985551 L 135.10254 64.916215 L 137.05078 63.715043 L 138.61817 62.557817 L 140.6836 60.858598 L 141.48926 60.038285 L 143.18848 57.884965 L 144.00879 56.80098 L 145.25391 54.545121 L 146.23536 52.670121 L 146.44043 51.923051 L 147.23145 48.978715 L 147.23145 48.612504 L 147.49512 45.389847 L 147.34864 43.104691 L 147.14356 41.669144 L 146.67481 39.706253 L 146.23536 38.270707 L 145.62012 36.908402 L 144.08203 34.213089 L 143.37891 33.041214 L 142.01661 31.429886 L 140.75684 30.08223 L 138.50098 28.177933 L 137.70996 27.474808 L 135.64453 26.302933 L 133.28614 25.116409 L 130.95703 24.120316 L 129.4336 23.666214 L 126.98731 23.124222 L 125.28809 22.875198 L 121.94825 22.67012 L 49.04297 22.67012 L 45.644532 22.875198 L 43.286134 23.124222 L 41.674806 23.490433 L 38.613282 24.398636 L 37.250977 24.867386 L 35.083009 25.936722 L 32.563477 27.386917 L 31.582032 28.090042 L 29.619141 29.906449 L 28.344727 31.078324 L 27.275391 32.513871 L 26.191407 34.037308 L 24.916993 36.36641 L 23.950196 38.343949 L 23.745118 38.885941 L 22.954102 41.874222 L 22.954102 42.123246 L 22.675782 45.389847 L 22.851563 47.704301 L 23.056641 49.066605 L 23.496094 51.044144 L 23.950196 52.465043 L 24.580079 53.827348 L 26.103516 56.52266 L 26.894532 57.797074 L 28.183594 59.408402 L 29.25293 60.492387 L 31.684571 62.631059 L 32.563477 63.260942 L 34.541016 64.550004 L 36.914063 65.707231 L 39.228517 66.703324 L 40.751954 67.142778 L 43.198243 67.68477 L 44.897462 67.96309 L 48.251954 68.138871 z " /></g></g></svg>

<?xml version="1.0" encoding="UTF-8" standalone="no"?>
<!-- Created with Inkscape (http://www.inkscape.org/) -->

<svg
   version="1.1"
   id="svg2"
   xml:space="preserve"
   width="22.693333"
   height="12.106667"
   viewBox="0 0 22.693333 12.106667"
   sodipodi:docname="idrott_anlaggning.svg"
   inkscape:version="1.1.1 (3bf5ae0d25, 2021-09-20)"
   xmlns:inkscape="http://www.inkscape.org/namespaces/inkscape"
   xmlns:sodipodi="http://sodipodi.sourceforge.net/DTD/sodipodi-0.dtd"
   xmlns="http://www.w3.org/2000/svg"
   xmlns:svg="http://www.w3.org/2000/svg"><sodipodi:namedview
     id="namedview10"
     pagecolor="#ffffff"
     bordercolor="#666666"
     borderopacity="1.0"
     inkscape:pageshadow="2"
     inkscape:pageopacity="0.0"
     inkscape:pagecheckerboard="0"
     showgrid="false"
     inkscape:zoom="52.129849"
     inkscape:cx="11.346666"
     inkscape:cy="6.0617862"
     inkscape:window-width="2560"
     inkscape:window-height="1365"
     inkscape:window-x="0"
     inkscape:window-y="0"
     inkscape:window-maximized="1"
     inkscape:current-layer="g10" /><defs
     id="defs6" /><g
     id="g8"
     transform="matrix(1.3333333,0,0,-1.3333333,0,12.106667)"><g
       id="g10"
       transform="scale(0.1)"><path
         d="M 121.953,90.8203 H 47.418 L 43.2852,90.6484 39.1445,90 35.0898,89.1211 31.1484,87.9297 27.3477,86.3086 23.668,84.5313 20.1445,82.375 16.918,79.9414 13.8555,77.2422 11.0781,74.3516 8.55859,71.1992 6.28516,67.8555 4.41797,64.3711 2.77734,60.7695 1.61719,56.9766 0.707031,53.1992 0.167969,49.3203 0,45.3828 V 44.6367 L 0.257813,40.7031 0.820313,36.8164 1.8125,33.0469 3.05859,29.3555 4.75781,25.7422 6.75,22.2461 8.98828,18.9844 11.5078,15.8398 14.3984,13.0664 17.457,10.3711 20.7773,8.02734 24.2891,5.95703 28.0898,4.16016 31.8594,2.71484 35.9063,1.52344 39.9727,0.644531 44.1094,0.195313 48.2461,0 h 73.7069 0.82 l 4.141,0.195313 4.141,0.625 4.043,0.917967 3.945,1.15235 3.789,1.62109 3.691,1.81641 3.516,2.14843 3.223,2.44144 3.066,2.5976 2.774,2.9492 2.519,3.0665 2.285,3.3398 1.856,3.5156 1.621,3.6133 1.191,3.7695 0.879,3.7578 0.567,3.9727 0.175,3.8828 v 0.707 l -0.293,3.9727 -0.527,3.8477 -0.996,3.8007 -1.25,3.7696 -1.699,3.5976 -1.973,3.4336 -2.285,3.3203 -2.52,3.0547 -2.871,2.8946 -3.047,2.6093 -3.32,2.4063 -3.516,2.0703 -3.808,1.8125 -3.77,1.4492 -4.043,1.1641 -4.062,0.9062 -4.121,0.4492 -4.141,0.1719"
         style="fill:#2f2f2f;fill-opacity:1.0;fill-rule:nonzero;stroke:none"
         id="path12" /><path
         d="m 121.777,85.1523 3.77,-0.1718 4.141,-0.4492 3.144,-0.7422 3.789,-1.0782 3.164,-1.164 3.399,-1.6055 3.164,-1.8984 2.871,-2.0703 2.793,-2.4414 2.343,-2.3321 2.344,-2.8906 1.797,-2.6016 1.875,-3.3164 1.543,-3.1484 0.996,-2.9727 0.996,-3.6875 0.332,-2.8007 0.274,-3.9493 v -0.2812 l -0.157,-3.7695 -0.371,-2.9805 -0.898,-3.6055 -0.996,-3.125 -1.445,-3.164 -1.7,-3.1641 -1.797,-2.6953 -2.343,-2.8711 -2.442,-2.5195 -2.695,-2.3438 -2.891,-2.168 -2.949,-1.7773 -3.262,-1.64064 -3.593,-1.54297 -3.399,-1.07421 -3.613,-0.70313 -3.418,-0.52734 -3.984,-0.21485 H 48.418 l -3.7696,0.21485 -4.1406,0.44922 -3.1484,0.70312 -3.8008,1.07422 -3.1367,1.17187 -3.4336,1.64066 -3.2422,1.9531 -2.7656,1.8945 -2.8125,2.5196 -2.5196,2.4414 -2.0703,2.6172 -1.957,2.7734 -1.81251,3.3398 -1.53125,3.1446 -0.98828,2.8711 -1,3.7109 -0.34375,2.7773 -0.27734,3.9688 v 0.25 l 0.16797,3.8906 0.37109,2.8594 0.90235,3.5976 1,3.1719 1.4414,3.1524 L 11.25,65 l 1.9883,2.9688 1.9805,2.5 2.5195,2.6132 2.7812,2.4258 2.8868,2.1641 2.9492,1.8047 3.2656,1.6211 3.5977,1.5351 3.3984,1.0781 3.5976,0.7266 3.4336,0.543 3.9727,0.1718 h 74.1559"
         style="fill:#fafafa;fill-opacity:1;fill-rule:nonzero;stroke:none"
         id="path14" /><path
         d="M 121.309,73.8086 H 48.0469 L 44.5625,73.6406 42.1211,73.2695 39.6016,72.7383 37.1563,71.9961 34.6406,70.918 31.7773,69.5039 29.5078,68.1406 27.8867,66.8711 25.4805,64.707 23.8398,63.1016 22.3047,61.1992 21.1484,59.332 19.5273,56.4414 18.707,54.6523 18,52.4688 l -0.6211,-2.5 -0.1992,-1.8086 -0.1719,-2.8907 0.2813,-3.4882 0.1679,-1.3594 0.8243,-2.9805 0.4257,-1.3281 1.1914,-2.3438 1.418,-2.6953 1.3594,-1.914 1.4414,-1.8946 1.6992,-1.6211 2.1563,-1.9726 1.7343,-1.1719 2.6016,-1.5234 2.6953,-1.3282 2.0703,-0.7421 3.1406,-0.8985 2.1641,-0.5469 2.7969,-0.2539 3.6914,-0.1757 h 73.2418 l 3.516,0.1757 2.441,0.3711 2.52,0.5274 2.441,0.7226 2.52,1.0742 2.871,1.4454 2.266,1.3281 1.621,1.2695 2.304,1.9922 1.621,1.6992 1.817,2.2656 0.996,1.5235 1.621,2.8711 0.82,1.8164 0.704,2.1562 0.625,2.5235 0.195,1.8633 0.176,2.8125 -0.293,3.5117 -0.157,1.3281 -0.82,3.0703 -0.43,1.4414 -1.269,2.5195 -1.367,2.3282 -1.153,1.7343 -1.914,2.3125 -1.328,1.3633 -2.363,1.9922 -1.953,1.4414 -2.266,1.3281 -2.695,1.3594 -2.071,0.711 -3.144,0.9062 -2.148,0.543 -2.813,0.2773 -3.691,0.1719"
         style="fill:#2f2f2f;fill-opacity:1.0;fill-rule:nonzero;stroke:none"
         id="path16" /><path
         d="m 121.152,68.1406 3.399,-0.1718 2.363,-0.2774 1.602,-0.3711 3.066,-0.8789 1.328,-0.4492 2.188,-1.0781 1.953,-1.1953 1.562,-1.1602 2.071,-1.6992 0.8,-0.8203 1.7,-2.1563 0.82,-1.082 1.25,-2.2578 0.976,-1.8711 0.215,-0.7422 0.782,-2.9492 v -0.3711 l 0.273,-3.2266 -0.156,-2.2734 -0.196,-1.4375 -0.468,-1.9649 -0.45,-1.4375 -0.605,-1.3554 -1.543,-2.6953 -0.703,-1.1719 -1.367,-1.6211 -1.25,-1.3477 -2.266,-1.8945 -0.781,-0.7031 -2.07,-1.1719 -2.364,-1.1914 -2.324,-0.9961 -1.523,-0.4492 -2.442,-0.5469 -1.699,-0.2539 -3.34,-0.1953 H 49.0391 l -3.3985,0.1953 -2.3554,0.2539 -1.6133,0.3711 -3.0625,0.8984 -1.3633,0.4688 -2.1563,1.0742 -2.5234,1.4453 -0.9883,0.7031 -1.957,1.8164 -1.2695,1.1719 -1.0821,1.4453 -1.082,1.5235 -1.2695,2.3242 -0.9688,1.9805 -0.2031,0.539 -0.7852,2.9844 v 0.25 l -0.2812,3.2617 0.168,2.3281 0.2031,1.3594 0.4492,1.9805 0.4492,1.418 0.6328,1.3593 1.5274,2.6914 0.789,1.2813 1.2813,1.6094 1.0703,1.0781 2.4375,2.1484 0.8789,0.6289 1.9805,1.2774 2.3633,1.164 2.3203,0.9922 1.5273,0.4492 2.4414,0.543 1.6992,0.2774 3.3477,0.1718 h 72.9059"
         style="fill:#ffffff;fill-opacity:1;fill-rule:nonzero;stroke:none"
         id="path18" /></g></g></svg>
